X: 1
T:L'an dro Crambert (R. Robert)
C:Burns Duo / Trad 2, 24
M:4/4
L:1/8
K:C
E|A2c2 B3A| Bcdc B2BE|A2c2 B3A| Bcde B3:|
|:E|A2GF E3D |C2D2 EDEF|\
G2FG E3F|1  EDCD E3:|2 EDCB, A,3||
